frontend/public/assets/material-icons/folder-mail-open.svg

<svg xmlns="http://www.w3.org/2000/svg" viewBox="0 0 32 32">
  <path d="M28.96692,12H9.44152a2,2,0,0,0-1.89737,1.36754L4,24V10H28a2,2,0,0,0-2-2H15.1241a2,2,0,0,1-1.28038-.46357L12.5563,6.46357A2,2,0,0,0,11.27592,6H4A2,2,0,0,0,2,8V24a2,2,0,0,0,2,2H26l4.80523-11.21213A2,2,0,0,0,28.96692,12Z" style="fill: #ff5252"/>
  <path d="M14,16V26a2,2,0,0,0,2,2H30a2,2,0,0,0,2-2V16a2,2,0,0,0-2-2H16A2,2,0,0,0,14,16Zm16,2-7,4-7-4V16l7,4,7-4Z" style="fill: #ffcdd2;fill-rule: evenodd"/>
</svg>

<svg xmlns="http://www.w3.org/2000/svg" viewBox="0 0 32 32"><path fill="#ff5252" d="M28.967 12H9.442a2 2 0 0 0-1.898 1.368L4 24V10h24a2 2 0 0 0-2-2H15.124a2 2 0 0 1-1.28-.464l-1.288-1.072A2 2 0 0 0 11.276 6H4a2 2 0 0 0-2 2v16a2 2 0 0 0 2 2h22l4.805-11.212A2 2 0 0 0 28.967 12"/><path fill="#ffcdd2" d="M14 16v10a2 2 0 0 0 2 2h14a2 2 0 0 0 2-2V16a2 2 0 0 0-2-2H16a2 2 0 0 0-2 2m16 2-7 4-7-4v-2l7 4 7-4Z"/></svg>
